!!! OTL: Berkowitz610
!!! Chapter: 1
!!! Section: V
!!! Page: 155
!!! Mode: 
!!! Encoder: AR
**kern
*staff1
=1-
!!pagebreak:original
*clefF4
*k[]
*C:
*M4/4
4C/
4F\
4B\
4F\
=2
8r
8C/
8F\L
8B\J
4c\
4E-\
=3
4D-\
4A\
4c\
4A\
=4
8r
8d-\
8A\L
8G\J
4B-\
4G-\
=5
4A\
4Gn\
4BB-/
4G\
=6
!!linebreak:original
8r
8A\
8G\L
8BB-\J
8F\L
8E\J
4BBn/
=7
4AA/
4F\
4A-\
4F\
=8
8AAn/L
8F/
8AA/
8F/J
8A-\L
8G-\J
4C/
=9
4F\
8E\L
8E-\J
8D/L
8C#/
8Cn/
8BB/J
=10
4BB-/
4G\
2A-\
==
*-
